app/img/logo.svg

<svg width="360" height="75" fill="none" xmlns="http://www.w3.org/2000/svg"><path d="M31.833 29.488h56.55v-7.981h-56.55V8.042h56.55V.061H27.478c-2.024 0-3.68 1.645-3.68 3.655v39.298h8.035V29.488z" fill="#44C697"/><path d="M97.584 0h-4.417v42.953h8.035V3.656C101.264 1.645 99.608 0 97.584 0z" fill="#1E2E36"/><path d="M107.581 27.965V49.29H17.419V27.965H4.6a4.579 4.579 0 00-4.6 4.57v12.124c0 2.559 2.085 4.57 4.6 4.57h2.944l1.288 14.987V75h3.312l3.864-10.784h92.984L112.856 75h3.312V64.216l1.288-14.988h2.944c2.576 0 4.6-2.071 4.6-4.57V32.536c0-2.56-2.085-4.57-4.6-4.57h-12.819z" fill="#1E2E36"/><path d="M147.488 49h-5.112V24.988h16.992v4.5h-11.88v5.076h11.628v4.5h-11.628V49z" fill="#44C697"/><path d="M179.142 49h-4.572v-2.196c-1.56 1.752-3.6 2.628-6.12 2.628-1.872 0-3.276-.48-4.212-1.44-.936-.96-1.404-2.304-1.404-4.032V31.612h4.572V42.16c0 2.136 1.068 3.204 3.204 3.204 1.608 0 2.928-.66 3.96-1.98V31.612h4.572V49zm9.112 0h-4.572V31.612h4.572v2.376c.648-.816 1.476-1.488 2.484-2.016s2.028-.792 3.06-.792v4.464c-.312-.072-.732-.108-1.26-.108-.768 0-1.584.192-2.448.576-.864.384-1.476.852-1.836 1.404V49zm24.709 0h-4.572V38.488c0-2.16-1.068-3.24-3.204-3.24-1.656 0-2.976.684-3.96 2.052V49h-4.572V31.612h4.572v2.268c1.512-1.8 3.54-2.7 6.084-2.7 1.872 0 3.276.492 4.212 1.476.96.984 1.44 2.34 1.44 4.068V49zm6.807-19.26c-.744 0-1.392-.264-1.944-.792-.528-.552-.792-1.2-.792-1.944a2.6 2.6 0 01.792-1.908c.552-.528 1.2-.792 1.944-.792.768 0 1.416.264 1.944.792a2.6 2.6 0 01.792 1.908c0 .744-.264 1.392-.792 1.944-.528.528-1.176.792-1.944.792zM222.074 49h-4.572V31.612h4.572V49zm10.366.432c-1.608 0-2.832-.408-3.672-1.224-.84-.816-1.26-1.992-1.26-3.528v-9.072h-2.88v-3.996h2.88V26.86h4.608v4.752h3.528v3.996h-3.528v7.848c0 .552.144 1.008.432 1.368.288.36.672.54 1.152.54.72 0 1.248-.168 1.584-.504l.972 3.456c-.84.744-2.112 1.116-3.816 1.116zM255.08 49h-4.572v-2.196c-1.56 1.752-3.6 2.628-6.12 2.628-1.872 0-3.276-.48-4.212-1.44-.936-.96-1.404-2.304-1.404-4.032V31.612h4.572V42.16c0 2.136 1.068 3.204 3.204 3.204 1.608 0 2.928-.66 3.96-1.98V31.612h4.572V49zm9.112 0h-4.572V31.612h4.572v2.376c.648-.816 1.476-1.488 2.484-2.016s2.028-.792 3.06-.792v4.464c-.312-.072-.732-.108-1.26-.108-.768 0-1.584.192-2.448.576-.864.384-1.476.852-1.836 1.404V49zm16.572.432c-2.688 0-4.908-.84-6.66-2.52-1.752-1.68-2.628-3.888-2.628-6.624 0-2.568.84-4.728 2.52-6.48 1.704-1.752 3.864-2.628 6.48-2.628 2.592 0 4.692.888 6.3 2.664 1.608 1.752 2.412 4.056 2.412 6.912v1.008h-12.924c.144 1.152.66 2.112 1.548 2.88.888.768 2.04 1.152 3.456 1.152.768 0 1.596-.156 2.484-.468.912-.312 1.632-.732 2.16-1.26l2.016 2.952c-1.752 1.608-4.14 2.412-7.164 2.412zm3.996-10.764c-.072-.984-.468-1.872-1.188-2.664-.696-.792-1.728-1.188-3.096-1.188-1.296 0-2.304.396-3.024 1.188-.72.768-1.14 1.656-1.26 2.664h8.568zm11.982 9.864c-.576.576-1.26.864-2.052.864s-1.476-.288-2.052-.864c-.576-.576-.864-1.26-.864-2.052s.288-1.476.864-2.052c.576-.576 1.26-.864 2.052-.864s1.476.288 2.052.864c.576.576.864 1.26.864 2.052s-.288 1.476-.864 2.052zm9.667.9c-1.608 0-2.832-.408-3.672-1.224-.84-.816-1.26-1.992-1.26-3.528v-9.072h-2.88v-3.996h2.88V26.86h4.608v4.752h3.528v3.996h-3.528v7.848c0 .552.144 1.008.432 1.368.288.36.672.54 1.152.54.72 0 1.248-.168 1.584-.504l.972 3.456c-.84.744-2.112 1.116-3.816 1.116zm14.504 0c-2.688 0-4.908-.84-6.66-2.52-1.752-1.68-2.628-3.888-2.628-6.624 0-2.568.84-4.728 2.52-6.48 1.704-1.752 3.864-2.628 6.48-2.628 2.592 0 4.692.888 6.3 2.664 1.608 1.752 2.412 4.056 2.412 6.912v1.008h-12.924c.144 1.152.66 2.112 1.548 2.88.888.768 2.04 1.152 3.456 1.152.768 0 1.596-.156 2.484-.468.912-.312 1.632-.732 2.16-1.26l2.016 2.952c-1.752 1.608-4.14 2.412-7.164 2.412zm3.996-10.764c-.072-.984-.468-1.872-1.188-2.664-.696-.792-1.728-1.188-3.096-1.188-1.296 0-2.304.396-3.024 1.188-.72.768-1.14 1.656-1.26 2.664h8.568zm13.994 10.764c-1.512 0-2.964-.24-4.356-.72-1.368-.48-2.508-1.14-3.42-1.98l1.98-3.204c.672.624 1.584 1.176 2.736 1.656 1.152.48 2.244.72 3.276.72.96 0 1.68-.168 2.16-.504.504-.336.756-.792.756-1.368 0-.432-.264-.78-.792-1.044-.504-.288-1.14-.492-1.908-.612-.744-.12-1.572-.3-2.484-.54a17.737 17.737 0 01-2.484-.864c-.744-.336-1.38-.864-1.908-1.584-.504-.744-.756-1.656-.756-2.736 0-1.536.636-2.832 1.908-3.888 1.272-1.056 3.012-1.584 5.22-1.584 2.688 0 5.028.792 7.02 2.376l-1.836 3.132c-.552-.576-1.296-1.056-2.232-1.44a7.437 7.437 0 00-2.916-.576c-.816 0-1.476.168-1.98.504-.504.312-.756.72-.756 1.224 0 .384.252.708.756.972.504.24 1.14.42 1.908.54.768.12 1.596.312 2.484.576.888.24 1.716.54 2.484.9.768.336 1.404.888 1.908 1.656.504.768.756 1.704.756 2.808 0 1.632-.672 2.976-2.016 4.032-1.32 1.032-3.156 1.548-5.508 1.548zm16.724 0c-1.608 0-2.832-.408-3.672-1.224-.84-.816-1.26-1.992-1.26-3.528v-9.072h-2.88v-3.996h2.88V26.86h4.608v4.752h3.528v3.996h-3.528v7.848c0 .552.144 1.008.432 1.368.288.36.672.54 1.152.54.72 0 1.248-.168 1.584-.504l.972 3.456c-.84.744-2.112 1.116-3.816 1.116z" fill="#1E2E36"/></svg>

<svg width="360" height="75" viewBox="0 0 360 75" fill="none" xmlns="http://www.w3.org/2000/svg">
<path d="M31.8328 29.4882H88.3833V21.5069H31.8328V8.04223H88.3833V0.0609131H27.478C25.4539 0.0609131 23.7979 1.70592 23.7979 3.71648V43.0138H31.8328V29.4882Z" fill="#44C697"/>
<path d="M97.5835 0H93.1674V42.9529H101.202V3.65556C101.264 1.645 99.6075 0 97.5835 0Z" fill="#1E2E36"/>
<path d="M107.581 27.9651V49.2892H17.4191V27.9651H4.60016C2.0241 27.9651 6.10352e-05 30.0366 6.10352e-05 32.5345V44.6588C6.10352e-05 47.2177 2.08544 49.2283 4.60016 49.2283H7.54422L8.83225 64.2161V75H12.1443L16.0084 64.2161H108.992L112.856 75H116.168V64.2161L117.456 49.2283H120.4C122.976 49.2283 125 47.1568 125 44.6588V32.5345C125 29.9756 122.915 27.9651 120.4 27.9651H107.581Z" fill="#1E2E36"/>
<path d="M147.488 49H142.376V24.988H159.368V29.488H147.488V34.564H159.116V39.064H147.488V49Z" fill="#44C697"/>
<path d="M179.142 49H174.57V46.804C173.01 48.556 170.97 49.432 168.45 49.432C166.578 49.432 165.174 48.952 164.238 47.992C163.302 47.032 162.834 45.688 162.834 43.96V31.612H167.406V42.16C167.406 44.296 168.474 45.364 170.61 45.364C172.218 45.364 173.538 44.704 174.57 43.384V31.612H179.142V49ZM188.254 49H183.682V31.612H188.254V33.988C188.902 33.172 189.73 32.5 190.738 31.972C191.746 31.444 192.766 31.18 193.798 31.18V35.644C193.486 35.572 193.066 35.536 192.538 35.536C191.77 35.536 190.954 35.728 190.09 36.112C189.226 36.496 188.614 36.964 188.254 37.516V49ZM212.963 49H208.391V38.488C208.391 36.328 207.323 35.248 205.187 35.248C203.531 35.248 202.211 35.932 201.227 37.3V49H196.655V31.612H201.227V33.88C202.739 32.08 204.767 31.18 207.311 31.18C209.183 31.18 210.587 31.672 211.523 32.656C212.483 33.64 212.963 34.996 212.963 36.724V49ZM219.77 29.74C219.026 29.74 218.378 29.476 217.826 28.948C217.298 28.396 217.034 27.748 217.034 27.004C217.034 26.26 217.298 25.624 217.826 25.096C218.378 24.568 219.026 24.304 219.77 24.304C220.538 24.304 221.186 24.568 221.714 25.096C222.242 25.624 222.506 26.26 222.506 27.004C222.506 27.748 222.242 28.396 221.714 28.948C221.186 29.476 220.538 29.74 219.77 29.74ZM222.074 49H217.502V31.612H222.074V49ZM232.44 49.432C230.832 49.432 229.608 49.024 228.768 48.208C227.928 47.392 227.508 46.216 227.508 44.68V35.608H224.628V31.612H227.508V26.86H232.116V31.612H235.644V35.608H232.116V43.456C232.116 44.008 232.26 44.464 232.548 44.824C232.836 45.184 233.22 45.364 233.7 45.364C234.42 45.364 234.948 45.196 235.284 44.86L236.256 48.316C235.416 49.06 234.144 49.432 232.44 49.432ZM255.08 49H250.508V46.804C248.948 48.556 246.908 49.432 244.388 49.432C242.516 49.432 241.112 48.952 240.176 47.992C239.24 47.032 238.772 45.688 238.772 43.96V31.612H243.344V42.16C243.344 44.296 244.412 45.364 246.548 45.364C248.156 45.364 249.476 44.704 250.508 43.384V31.612H255.08V49ZM264.192 49H259.62V31.612H264.192V33.988C264.84 33.172 265.668 32.5 266.676 31.972C267.684 31.444 268.704 31.18 269.736 31.18V35.644C269.424 35.572 269.004 35.536 268.476 35.536C267.708 35.536 266.892 35.728 266.028 36.112C265.164 36.496 264.552 36.964 264.192 37.516V49ZM280.764 49.432C278.076 49.432 275.856 48.592 274.104 46.912C272.352 45.232 271.476 43.024 271.476 40.288C271.476 37.72 272.316 35.56 273.996 33.808C275.7 32.056 277.86 31.18 280.476 31.18C283.068 31.18 285.168 32.068 286.776 33.844C288.384 35.596 289.188 37.9 289.188 40.756V41.764H276.264C276.408 42.916 276.924 43.876 277.812 44.644C278.7 45.412 279.852 45.796 281.268 45.796C282.036 45.796 282.864 45.64 283.752 45.328C284.664 45.016 285.384 44.596 285.912 44.068L287.928 47.02C286.176 48.628 283.788 49.432 280.764 49.432ZM284.76 38.668C284.688 37.684 284.292 36.796 283.572 36.004C282.876 35.212 281.844 34.816 280.476 34.816C279.18 34.816 278.172 35.212 277.452 36.004C276.732 36.772 276.312 37.66 276.192 38.668H284.76ZM296.742 48.532C296.166 49.108 295.482 49.396 294.69 49.396C293.898 49.396 293.214 49.108 292.638 48.532C292.062 47.956 291.774 47.272 291.774 46.48C291.774 45.688 292.062 45.004 292.638 44.428C293.214 43.852 293.898 43.564 294.69 43.564C295.482 43.564 296.166 43.852 296.742 44.428C297.318 45.004 297.606 45.688 297.606 46.48C297.606 47.272 297.318 47.956 296.742 48.532ZM306.409 49.432C304.801 49.432 303.577 49.024 302.737 48.208C301.897 47.392 301.477 46.216 301.477 44.68V35.608H298.597V31.612H301.477V26.86H306.085V31.612H309.613V35.608H306.085V43.456C306.085 44.008 306.229 44.464 306.517 44.824C306.805 45.184 307.189 45.364 307.669 45.364C308.389 45.364 308.917 45.196 309.253 44.86L310.225 48.316C309.385 49.06 308.113 49.432 306.409 49.432ZM320.913 49.432C318.225 49.432 316.005 48.592 314.253 46.912C312.501 45.232 311.625 43.024 311.625 40.288C311.625 37.72 312.465 35.56 314.145 33.808C315.849 32.056 318.009 31.18 320.625 31.18C323.217 31.18 325.317 32.068 326.925 33.844C328.533 35.596 329.337 37.9 329.337 40.756V41.764H316.413C316.557 42.916 317.073 43.876 317.961 44.644C318.849 45.412 320.001 45.796 321.417 45.796C322.185 45.796 323.013 45.64 323.901 45.328C324.813 45.016 325.533 44.596 326.061 44.068L328.077 47.02C326.325 48.628 323.937 49.432 320.913 49.432ZM324.909 38.668C324.837 37.684 324.441 36.796 323.721 36.004C323.025 35.212 321.993 34.816 320.625 34.816C319.329 34.816 318.321 35.212 317.601 36.004C316.881 36.772 316.461 37.66 316.341 38.668H324.909ZM338.903 49.432C337.391 49.432 335.939 49.192 334.547 48.712C333.179 48.232 332.039 47.572 331.127 46.732L333.107 43.528C333.779 44.152 334.691 44.704 335.843 45.184C336.995 45.664 338.087 45.904 339.119 45.904C340.079 45.904 340.799 45.736 341.279 45.4C341.783 45.064 342.035 44.608 342.035 44.032C342.035 43.6 341.771 43.252 341.243 42.988C340.739 42.7 340.103 42.496 339.335 42.376C338.591 42.256 337.763 42.076 336.851 41.836C335.963 41.596 335.135 41.308 334.367 40.972C333.623 40.636 332.987 40.108 332.459 39.388C331.955 38.644 331.703 37.732 331.703 36.652C331.703 35.116 332.339 33.82 333.611 32.764C334.883 31.708 336.623 31.18 338.831 31.18C341.519 31.18 343.859 31.972 345.851 33.556L344.015 36.688C343.463 36.112 342.719 35.632 341.783 35.248C340.871 34.864 339.899 34.672 338.867 34.672C338.051 34.672 337.391 34.84 336.887 35.176C336.383 35.488 336.131 35.896 336.131 36.4C336.131 36.784 336.383 37.108 336.887 37.372C337.391 37.612 338.027 37.792 338.795 37.912C339.563 38.032 340.391 38.224 341.279 38.488C342.167 38.728 342.995 39.028 343.763 39.388C344.531 39.724 345.167 40.276 345.671 41.044C346.175 41.812 346.427 42.748 346.427 43.852C346.427 45.484 345.755 46.828 344.411 47.884C343.091 48.916 341.255 49.432 338.903 49.432ZM355.627 49.432C354.019 49.432 352.795 49.024 351.955 48.208C351.115 47.392 350.695 46.216 350.695 44.68V35.608H347.815V31.612H350.695V26.86H355.303V31.612H358.831V35.608H355.303V43.456C355.303 44.008 355.447 44.464 355.735 44.824C356.023 45.184 356.407 45.364 356.887 45.364C357.607 45.364 358.135 45.196 358.471 44.86L359.443 48.316C358.603 49.06 357.331 49.432 355.627 49.432Z" fill="#1E2E36"/>
</svg>
